img/muffin-red.svg

<svg viewBox="0 0 39 43" style="fill:#ff5635" xmlns="http://www.w3.org/2000/svg"><path d="M33.684 28.274a4.949 4.949 0 0 1-3.91-1.91l-1.044-1.331-.987 1.375a4.991 4.991 0 0 1-4.051 2.08 4.947 4.947 0 0 1-2.862-.912l-1.145-.81-.693 1.219a6.353 6.353 0 0 1-5.521 3.214 6.33 6.33 0 0 1-5.275-2.838l-.557-.837-.943.35a4.98 4.98 0 0 1-6.705-4.672 4.947 4.947 0 0 1 3.164-4.627l.824-.322-.023-1.014c.003-2.011 1.109-3.835 2.894-5.175a6.754 6.754 0 0 1 .927-4.654c-1.621-1.5-3.203-3.506-3.528-5.806a1.41 1.41 0 1 1 2.793-.394c.205 1.454 1.371 2.933 2.693 4.153a6.753 6.753 0 0 1 3.828-1.179c3.051.004 5.636 2.03 6.486 4.806a13.08 13.08 0 0 1 3.783-.547c5.774.007 10.466 3.643 10.46 8.105a6.478 6.478 0 0 1-.037.646l-.109 1.041 1 .306a4.946 4.946 0 0 1 3.52 4.764 4.982 4.982 0 0 1-4.982 4.969ZM13.56 6.159a4.784 4.784 0 0 0-2.201.534c.48.352.939.655 1.337.894a1.41 1.41 0 0 1-1.453 2.418 22.041 22.041 0 0 1-1.93-1.311 4.79 4.79 0 0 0-.576 2.276 4.823 4.823 0 0 0 4.811 4.824 4.824 4.824 0 0 0 4.823-4.812 4.823 4.823 0 0 0-4.811-4.823ZM11.3 32.824s.407 3.931.513 5.818c.041.723.505 1.047.789 1.12.264.069.765.065.996-.044.322-.153.633-.278.653-1.163.037-1.651-.389-5.466-.389-5.466a8.761 8.761 0 0 0 2.035-.327s.142 5.676.263 6.455c.124.791.701.98 1.227.981.55 0 1.174-.301 1.164-1.183l-.082-7.455a8.886 8.886 0 0 0 2.025-1.892c.047.023.096.042.143.064 0 0-.133 8.667-.098 9.328.047.883.631 1.221 1.279 1.222.656.001 1.259-.453 1.348-1.162.082-.657.249-8.74.249-8.74.093.004.187.009.281.009a7.49 7.49 0 0 0 1.951-.259s-.515 7.681-.427 8.258c.123.809.628 1.165 1.306 1.165.645.001 1.204-.487 1.326-1.35.076-.539.87-9.741.87-9.741.033-.028.066-.056.097-.085a7.45 7.45 0 0 0 4.062 1.75L31.243 40.6c-.216 1.38-1.535 2.507-2.931 2.505l-17.657-.023c-1.397-.002-2.714-1.132-2.925-2.513L6.105 29.997c.185-.028.369-.06.552-.102a8.855 8.855 0 0 0 4.643 2.929Z" class="cls-1"/></svg>

<svg viewBox="0 0 39 43" style="fill: #ff5635" xmlns="http://www.w3.org/2000/svg">
  <path d="M33.684,28.274 C32.149,28.272 30.724,27.576 29.774,26.364 L28.730,25.033 L27.743,26.408 C26.807,27.712 25.293,28.490 23.692,28.488 C22.661,28.486 21.671,28.171 20.830,27.576 L19.685,26.766 L18.992,27.985 C17.865,29.970 15.749,31.202 13.471,31.199 C11.346,31.196 9.374,30.136 8.196,28.361 L7.639,27.524 L6.696,27.874 C6.141,28.081 5.557,28.185 4.959,28.184 C2.216,28.181 -0.013,25.945 -0.009,23.202 C-0.006,21.142 1.235,19.326 3.155,18.575 L3.979,18.253 L3.956,17.239 C3.959,15.228 5.065,13.404 6.850,12.064 C6.792,11.707 6.762,11.341 6.762,10.967 C6.764,9.663 7.136,8.445 7.777,7.410 C6.156,5.910 4.574,3.904 4.249,1.604 C4.140,0.832 4.677,0.119 5.449,0.010 C5.517,0.000 5.585,-0.004 5.652,-0.004 C6.342,-0.003 6.944,0.507 7.042,1.210 C7.247,2.664 8.413,4.143 9.735,5.363 C10.827,4.618 12.145,4.182 13.563,4.184 C16.614,4.188 19.199,6.214 20.049,8.990 C21.246,8.630 22.523,8.441 23.832,8.443 C29.606,8.450 34.298,12.086 34.292,16.548 C34.291,16.744 34.280,16.955 34.255,17.194 L34.146,18.235 L35.146,18.541 C37.254,19.185 38.669,21.099 38.666,23.305 C38.662,26.049 36.427,28.277 33.684,28.274 ZM13.560,6.159 C12.767,6.158 12.020,6.353 11.359,6.693 C11.839,7.045 12.298,7.348 12.696,7.587 C13.363,7.988 13.579,8.855 13.178,9.522 C12.913,9.963 12.445,10.207 11.966,10.207 C11.719,10.206 11.469,10.141 11.243,10.005 C10.818,9.750 10.115,9.302 9.313,8.694 C8.947,9.372 8.738,10.147 8.737,10.970 C8.733,13.626 10.892,15.790 13.548,15.794 C16.203,15.797 18.367,13.639 18.371,10.982 C18.374,8.326 16.216,6.162 13.560,6.159 ZM11.300,32.824 C11.300,32.824 11.707,36.755 11.813,38.642 C11.854,39.365 12.318,39.689 12.602,39.762 C12.866,39.831 13.367,39.827 13.598,39.718 C13.920,39.565 14.231,39.440 14.251,38.555 C14.288,36.904 13.862,33.089 13.862,33.089 C14.558,33.060 15.240,32.949 15.897,32.762 C15.897,32.762 16.039,38.438 16.160,39.217 C16.284,40.008 16.861,40.197 17.387,40.198 C17.937,40.198 18.561,39.897 18.551,39.015 C18.543,38.207 18.469,31.560 18.469,31.560 C19.232,31.042 19.918,30.408 20.494,29.668 C20.541,29.691 20.590,29.710 20.637,29.732 C20.637,29.732 20.504,38.399 20.539,39.060 C20.586,39.943 21.170,40.281 21.818,40.282 C22.474,40.283 23.077,39.829 23.166,39.120 C23.248,38.463 23.415,30.380 23.415,30.380 C23.508,30.384 23.602,30.389 23.696,30.389 C24.361,30.390 25.017,30.299 25.647,30.130 C25.647,30.130 25.132,37.811 25.220,38.388 C25.343,39.197 25.848,39.553 26.526,39.553 C27.171,39.554 27.730,39.066 27.852,38.203 C27.928,37.664 28.722,28.462 28.722,28.462 C28.755,28.434 28.788,28.406 28.819,28.377 C29.962,29.357 31.371,29.964 32.881,30.127 L31.243,40.600 C31.027,41.980 29.708,43.107 28.312,43.105 L10.655,43.082 C9.258,43.080 7.941,41.950 7.730,40.569 L6.105,29.997 C6.290,29.969 6.474,29.937 6.657,29.895 C7.864,31.349 9.492,32.366 11.300,32.824 Z" class="cls-1"/>
</svg>
